assets/icons/calendar.svg

<svg width="25" height="25" viewBox="0 0 25 25" fill="none" xmlns="http://www.w3.org/2000/svg">
<g id="calendar">
<path id="iconDefault" fill-rule="evenodd" clip-rule="evenodd" d="M4.5 1.25C4.77614 1.25 5 1.47386 5 1.75V3.75H8V1.75C8 1.47386 8.22386 1.25 8.5 1.25C8.77614 1.25 9 1.47386 9 1.75V3.75H12V1.75C12 1.47386 12.2239 1.25 12.5 1.25C12.7761 1.25 13 1.47386 13 1.75V3.75H16V1.75C16 1.47386 16.2239 1.25 16.5 1.25C16.7761 1.25 17 1.47386 17 1.75V3.75H20V1.75C20 1.47386 20.2239 1.25 20.5 1.25C20.7761 1.25 21 1.47386 21 1.75V3.79148C22.4189 4.02952 23.5 5.2635 23.5 6.75V20.75C23.5 22.4069 22.1569 23.75 20.5 23.75H4.5C2.84315 23.75 1.5 22.4069 1.5 20.75V6.75C1.5 5.2635 2.58114 4.02952 4 3.79148V1.75C4 1.47386 4.22386 1.25 4.5 1.25ZM17 4.75H20C20 5.02614 20.2239 5.25 20.5 5.25C20.7551 5.25 20.9656 5.0589 20.9962 4.81203C21.8607 5.03272 22.5 5.81671 22.5 6.75V20.75C22.5 21.8546 21.6046 22.75 20.5 22.75H4.5C3.39543 22.75 2.5 21.8546 2.5 20.75V6.75C2.5 5.81671 3.13926 5.03273 4.00381 4.81203C4.03436 5.0589 4.24486 5.25 4.5 5.25C4.77614 5.25 5 5.02614 5 4.75H8C8 5.02614 8.22386 5.25 8.5 5.25C8.77614 5.25 9 5.02614 9 4.75H12C12 5.02614 12.2239 5.25 12.5 5.25C12.7761 5.25 13 5.02614 13 4.75H16C16 5.02614 16.2239 5.25 16.5 5.25C16.7761 5.25 17 5.02614 17 4.75ZM4.42145 20.8286C4.70284 21.1099 5.08638 21.25 5.5 21.25H19.5C19.9136 21.25 20.2972 21.1099 20.5786 20.8286C20.8599 20.5472 21 20.1636 21 19.75V9.75C21 9.33638 20.8599 8.95284 20.5786 8.67145C20.2972 8.39006 19.9136 8.25 19.5 8.25H13.5C13.0864 8.25 12.7028 8.39006 12.4214 8.67145C12.1401 8.95284 12 9.33638 12 9.75V12.25H5.5C5.08638 12.25 4.70284 12.3901 4.42145 12.6714C4.14006 12.9528 4 13.3364 4 13.75V19.75C4 20.1636 4.14006 20.5472 4.42145 20.8286ZM13 9.75C13 9.56362 13.0599 9.44716 13.1286 9.37855C13.1972 9.30994 13.3136 9.25 13.5 9.25H16V12.25H13V9.75ZM9 13.25H12V16.25H9V13.25ZM13 20.25V17.25H16V20.25H13ZM12 17.25V20.25H9V17.25H12ZM8 17.25V20.25H5.5C5.31362 20.25 5.19716 20.1901 5.12855 20.1214C5.05994 20.0528 5 19.9364 5 19.75V17.25H8ZM5 16.25H8V13.25H5.5C5.31362 13.25 5.19716 13.3099 5.12855 13.3786C5.05994 13.4472 5 13.5636 5 13.75V16.25ZM16 16.25H13V13.25H16V16.25ZM17 17.25H20V19.75C20 19.9364 19.9401 20.0528 19.8714 20.1214C19.8028 20.1901 19.6864 20.25 19.5 20.25H17V17.25ZM20 13.25V16.25H17V13.25H20ZM20 9.75V12.25H17V9.25H19.5C19.6864 9.25 19.8028 9.30994 19.8714 9.37855C19.9401 9.44716 20 9.56362 20 9.75Z" fill="#18303F"/>
</g>
</svg>

<svg width="25" height="25" viewBox="0 0 25 25" fill="none"><g id="calendar"><path id="iconDefault" fill-rule="evenodd" clip-rule="evenodd" d="M4.5 1.25a.5.5 0 0 1 .5.5v2h3v-2a.5.5 0 0 1 1 0v2h3v-2a.5.5 0 0 1 1 0v2h3v-2a.5.5 0 0 1 1 0v2h3v-2a.5.5 0 0 1 1 0v2.041a3 3 0 0 1 2.5 2.959v14a3 3 0 0 1-3 3h-16a3 3 0 0 1-3-3v-14A3 3 0 0 1 4 3.791V1.75a.5.5 0 0 1 .5-.5ZM17 4.75h3a.5.5 0 0 0 .996.062A2 2 0 0 1 22.5 6.75v14a2 2 0 0 1-2 2h-16a2 2 0 0 1-2-2v-14a2 2 0 0 1 1.504-1.938A.5.5 0 0 0 5 4.75h3a.5.5 0 0 0 1 0h3a.5.5 0 0 0 1 0h3a.5.5 0 0 0 1 0ZM4.421 20.829c.282.28.665.421 1.079.421h14c.414 0 .797-.14 1.079-.421.28-.282.421-.665.421-1.079v-10c0-.414-.14-.797-.421-1.079A1.506 1.506 0 0 0 19.5 8.25h-6c-.414 0-.797.14-1.079.421-.28.282-.421.665-.421 1.079v2.5H5.5c-.414 0-.797.14-1.079.421-.28.282-.421.665-.421 1.079v6c0 .414.14.797.421 1.079ZM13 9.75c0-.186.06-.303.129-.371.068-.07.185-.129.371-.129H16v3h-3v-2.5Zm-4 3.5h3v3H9v-3Zm4 7v-3h3v3h-3Zm-1-3v3H9v-3h3Zm-4 0v3H5.5c-.186 0-.303-.06-.371-.129-.07-.068-.129-.185-.129-.371v-2.5h3Zm-3-1h3v-3H5.5c-.186 0-.303.06-.371.129-.07.068-.129.185-.129.371v2.5Zm11 0h-3v-3h3v3Zm1 1h3v2.5c0 .186-.06.303-.129.371-.068.07-.185.129-.371.129H17v-3Zm3-4v3h-3v-3h3Zm0-3.5v2.5h-3v-3h2.5c.186 0 .303.06.371.129.07.068.129.185.129.371Z" fill="#18303F"/></g></svg>
